X:1
T:Title
%%score { ( 1 3 ) | 2 }
L:1/8
M:6/8
K:C
V:1 treble nm="Grand Piano"
V:3 treble 
V:2 bass 
V:1
 z3 z2[Q:1/4=90] [EG] | [EG]2 E D2 C | E3 E2 [EG] | [EG]2 [CA] [CG]2 [G,CE] | %4
[M:5/8] [G,B,D]-[G,B,D]- [G,B,D]3 |[M:1/8] [B,FG] |[M:3/4] [CEG]2 E D2 C | A3 A2 B | %8
 [^Fc]2 [Fd] [Fc]2 [FA] |[M:5/8] G-G- G3 |[M:1/8] G |[M:3/4] B2 B d2 d | c3 c2 E | A2 B c2 [Ad] | %14
[M:5/8] [^Ge]-[Ge]- [Ge]3 |[M:1/8] [^Ge] |[M:3/4] [Ae]2 [^Gd] [Ac]2 [GB] | %17
[M:7/8] [Ad]3 [Ad]3 [Ac] |[M:3/4] [GB]2 [GB] [Gc]2 [Fd] |[M:5/8] [Ec]-[Ec]- [Ec]3 |[M:1/8] [EG] | %21
[M:3/4] [CE]2 [DF] [EG]2 [FA] | [EG]4- [EG][Gc] | B2 c d2 e |[M:5/8] d-d- d3 |[M:1/8] G | %26
[M:3/4] e2 [Ge]e d[Gc] |[M:7/8] [Fd]3 [Ad]3 [Ac] |[M:3/4] [GB]2 [GB] [Gc]2 [Fd] | %29
[M:5/8] [Ec]-[Ec]- [Ec]3 |] %30
V:2
 z3 z2 [C,C] | [C,C]2 [C,G,C] [C,F,B,]2 [C,E,] | [C,G,C]3 [C,G,C]2 [C,C] | [C,C]2 F, E,2 C, | %4
[M:5/8] G,,-G,,- G,,3 |[M:1/8] G,, |[M:3/4] C,2 [C,G,C] [D,G,B,]2 [E,G,] | [F,C]3 [F,CF]2 [F,DF] | %8
 [D,D]2 [D,A,] [D,A,]2 [D,C] |[M:5/8] [G,B,]-[G,B,]- [G,B,]3 |[M:1/8] [G,B,] | %11
[M:3/4][K:treble] [G,DG]2 [G,DG] [^G,B,F]2 [G,B,F] | [A,CE]3[K:bass] [A,CE]2 [^G,B,] | %13
 [A,CE]2 [^G,B,E] [A,E]2 [F,A,] |[M:5/8] [E,B,]-[E,B,]- [E,B,]3 |[M:1/8] [E,B,] | %16
[M:3/4] [E,C]2 [E,B,] [E,A,]2 [E,D] |[M:7/8] [F,D]3 [F,D]3 [^F,D] | %18
[M:3/4] [G,D]2 [G,D] [G,,A,]2 [G,,B,] |[M:5/8] [C,C]-[C,C]- [C,C]3 |[M:1/8] [C,C] | %21
[M:3/4] [C,G,]2 [C,C] [C,C]2 [C,C] | [C,C]4- [C,C][E,C] | [G,DG]2 [G,EG] [G,B,G]2 [G,CG] | %24
[M:5/8] [G,B,G]-[G,B,G]- [G,B,G]3 |[M:1/8] [G,B,] |[M:3/4] [CG]2[K:bass] [C,C][C,C] [D,B,][E,_B,] | %27
[M:7/8] [F,A,]3 [F,D]3 [^F,D] |[M:3/4] [G,D]2 [G,D] [G,,A,]2 [G,,B,] | %29
[M:5/8] [C,C]-[C,C]- [C,C]3 |] %30
V:3
 x6 | x6 | x6 | x6 |[M:5/8] x5 |[M:1/8] x |[M:3/4] x6 | x6 | x6 |[M:5/8] x5 |[M:1/8] x | %11
[M:3/4] x6 | x6 | x6 |[M:5/8] x5 |[M:1/8] x |[M:3/4] x6 |[M:7/8] x7 |[M:3/4] x6 |[M:5/8] x5 | %20
[M:1/8] x |[M:3/4] x6 | x6 | x6 |[M:5/8] x5 |[M:1/8] x |[M:3/4] z2 z .G3 |[M:7/8] x7 |[M:3/4] x6 | %29
[M:5/8] x5 |] %30

